svg/network_strength_2_alert.svg

<svg xmlns="http://www.w3.org/2000/svg" viewBox="0 0 24 24"><path d="M21 1 1 21h16v-2h-4v-7.2l6-6V9h2m-2 2v6h2v-6m-2 8v2h2v-2"/></svg>

<?xml version="1.0" encoding="UTF-8"?><!DOCTYPE svg PUBLIC "-//W3C//DTD SVG 1.1//EN" "http://www.w3.org/Graphics/SVG/1.1/DTD/svg11.dtd"><svg xmlns="http://www.w3.org/2000/svg" xmlns:xlink="http://www.w3.org/1999/xlink" version="1.1" id="mdi-network-strength-2-alert" width="24" height="24" viewBox="0 0 24 24"><path d="M21 1L1 21H17V19H13V11.8L19 5.8V9H21M19 11V17H21V11M19 19V21H21V19" /></svg>
